X:37
T:Music for a Found Harmonium
M:4/4
L:1/8
C:Simon Jeffes
K:D
% TUNEdb Number 2668
"D"FDGD FD2D|FDGD FD2D|FDGD FD2D|"A"EDCD "D"FD {F}D{C}D:|!
"A"EDCD EDCD|"D"FDCD FDCD|"G"GDED "A"CDGD|1"D"FDDE D2 .D.D:|2"D"FDDE D2 E=F|!
[K:C] "F"cFEF GFEF|cFEF E3F|cFEF GF2F|cFEF E3F:|!
[K:F] "Bb"BFEF GFDF|BFDF GF2F|"Bb"BGEF GFDF|BFDF GF2F|!
[K:D]"A7"cGFG CG2G|cGFG EG2G|"A7"cGFG CG2G|cGFG EG2G||

